build/redact/BorderBoldOutterOutline.svg

<svg xmlns="http://www.w3.org/2000/svg" fill="none" viewBox="0 0 24 24" focusable="false"><path d="M0 0H24V24H0z" transform="matrix(1 0 0 -1 0 24)"/><path fill="#74767B" fill-rule="evenodd" d="M6.99641 20.0029C5.34154 20.0029 4 18.6598 4 17.0029L4 7C4 5.34315 5.34154 4 6.99641 4L17.0036 4C18.6585 4 20 5.34315 20 7L20 17C20 18.5047 18.8935 19.7507 17.4507 19.9668C17.2988 19.9906 17.1431 20.0029 16.9844 20.0029L6.99641 20.0029ZM7.54653 15.7521C7.54653 16.1387 7.85956 16.4521 8.2457 16.4521L11.3666 16.4521C11.3501 16.3948 11.3412 16.3341 11.3412 16.2714L11.3412 15.0763C11.3412 14.7173 11.6318 14.4263 11.9904 14.4263C12.349 14.4263 12.6396 14.7173 12.6396 15.0763L12.6396 16.2714C12.6396 16.3341 12.6308 16.3948 12.6142 16.4521L15.7543 16.4521C16.1404 16.4521 16.4535 16.1387 16.4535 15.7521L16.4535 12.6197C16.3914 12.6394 16.3253 12.6501 16.2567 12.6501L15.063 12.6501C14.7045 12.6501 14.4138 12.3591 14.4138 12.0001C14.4138 11.6411 14.7045 11.3501 15.063 11.3501L16.2567 11.3501C16.3253 11.3501 16.3914 11.3607 16.4535 11.3805L16.4535 8.25078C16.4535 7.86418 16.1404 7.55078 15.7543 7.55078L12.615 7.55078C12.6311 7.6073 12.6396 7.66695 12.6396 7.72861L12.6396 8.92373C12.6396 9.28272 12.349 9.57373 11.9904 9.57373C11.6318 9.57373 11.3412 9.28272 11.3412 8.92373L11.3412 7.72861C11.3412 7.66695 11.3498 7.6073 11.3658 7.55078L8.2457 7.55078C7.85956 7.55078 7.54653 7.86418 7.54653 8.25078L7.54653 11.3747C7.60298 11.3587 7.66257 11.3501 7.72415 11.3501L8.91784 11.3501C9.27639 11.3501 9.56706 11.6411 9.56706 12.0001C9.56706 12.3591 9.27639 12.6501 8.91784 12.6501L7.72415 12.6501C7.66257 12.6501 7.60298 12.6415 7.54653 12.6255L7.54653 15.7521Z"/></svg>

<svg xmlns="http://www.w3.org/2000/svg" fill="none" viewBox="0 0 24 24" focusable="false"><path fill="#74767B" fill-rule="evenodd" d="M6.99 20A3 3 0 0 1 4 17V7c0-1.66 1.34-3 2.99-3H17c1.65 0 3 1.34 3 3v10c0 1.5-1.11 2.75-2.55 2.96-.16.03-.31.04-.47.04zm.55-4.25c0 .38.31.7.7.7h3.12c-.01-.06-.02-.12-.02-.18v-1.2c0-.36.29-.65.65-.65.35 0 .64.29.64.65v1.2c0 .06 0 .12-.02.18h3.14c.39 0 .7-.32.7-.7v-3.14c-.06.02-.13.04-.2.04h-1.19c-.36 0-.65-.3-.65-.65 0-.36.29-.65.65-.65h1.19c.07 0 .14.01.2.03V8.25c0-.39-.31-.7-.7-.7h-3.14c.02.05.02.11.02.17v1.2c0 .36-.29.65-.64.65-.36 0-.65-.29-.65-.65v-1.2c0-.06 0-.12.02-.17H8.24c-.39 0-.7.31-.7.7v3.12c.06-.02.12-.02.18-.02h1.19c.36 0 .65.29.65.65 0 .35-.29.65-.65.65H7.72q-.09 0-.18-.03z"/></svg>
